;PYCAM-META-DATA: Filename: None
;PYCAM-META-DATA: Timestamp: 2015-08-18 23:43:18.343000
;PYCAM-META-DATA: Version: 0.5.1.1
;Estimated machine time: 39 minutes
G40 (disable tool radius compensation)
G49 (disable tool length compensation)
G80 (cancel modal motion)
G54 (select coordinate system 1)
G90 (disable incremental moves)
G21 (metric)
G61 (exact path mode)
F200.00000
S1000.00000
;PYCAM_TOOLPATH_SETTINGS: START
;[Bounds]
;maxz = 0.0
;maxx = 178.5
;maxy = 98.5
;minx = 51.5
;miny = 51.5
;minz = -10.0
;
;[Tool]
;torus_radius = 0.25
;speed = 1000.0
;shape = SphericalCutter
;tool_radius = 1.5
;feedrate = 200.0
;
;[Process]
;generator = PushCutter
;pocketing_type = none
;engrave_offset = 0.0
;milling_style = ignore
;path_direction = x
;step_down = 3.0
;postprocessor = SimpleCutter
;overlap_percent = 0
;material_allowance = 0.5
;
;PYCAM_TOOLPATH_SETTINGS: END
T3 M6
G0 Z25.0000
M3 (start spindle)
G04 P3 (wait for 3 seconds)
 X51.5000 Y51.5000
G1 Z0.0000
 X52.5288
G0 Z25.0000
 X177.4712
G1 Z0.0000
 X178.5000
G0 Z25.0000
 X60.9272 Y57.3750
G1 Z0.0000
 X169.0728
G0 Z25.0000
 X172.2499 Y60.3125
G1 Z0.0000
 X57.7501
G0 Z25.0000
 X56.5141 Y63.2500
G1 Z0.0000
 X173.4859
 X173.6771 Y66.1875
 X56.3229
 Y69.1250
 X173.6771
 Y72.0625
 X56.3229
 Y75.0000
 X173.6771
 Y77.9375
 X56.3229
 Y80.8750
 X173.6771
 Y83.8125
 X56.3229
 X56.5141 Y86.7500
 X173.4859
G0 Z25.0000
 X172.2499 Y89.6875
G1 Z0.0000
 X57.7501
G0 Z25.0000
 X60.9272 Y92.6250
G1 Z0.0000
 X169.0728
G0 Z25.0000
 X51.5000 Y98.5000
G1 Z0.0000
 X52.5288
G0 Z25.0000
 X177.4712
G1 Z0.0000
 X178.5000
 Z-2.5000
 X178.4204
G0 Z25.0000
 X51.5796
G1 Z-2.5000
 X51.5000
G0 Z25.0000
 X167.3416 Y92.6250
G1 Z-2.5000
 X62.6584
G0 Z25.0000
 X58.5320 Y89.6875
G1 Z-2.5000
 X171.4680
G0 Z25.0000
 X172.7855 Y86.7500
G1 Z-2.5000
 X57.2145
 X57.0000 Y83.8125
 X173.0000
 Y80.8750
 X167.2245
G0 Z25.0000
 X100.6950
G1 Z-2.5000
 X94.9974
G0 Z25.0000
 X69.4329
G1 Z-2.5000
 X57.0000
 Y77.9375
 X68.0929
G0 Z25.0000
 X75.3112
G1 Z-2.5000
 X81.2292
G0 Z25.0000
 X93.6546
G1 Z-2.5000
 X99.3568
G0 Z25.0000
 X111.6481
G1 Z-2.5000
 X117.8553
G0 Z25.0000
 X148.4086
G1 Z-2.5000
 X150.3553
G0 Z25.0000
 X157.5848
G1 Z-2.5000
 X159.5325
G0 Z25.0000
 X166.6821
G1 Z-2.5000
 X173.0000
 Y75.0000
 X165.3410
G0 Z25.0000
 X158.1910
G1 Z-2.5000
 X156.2505
G0 Z25.0000
 X149.0145
G1 Z-2.5000
 X147.0739
G0 Z25.0000
 X121.5833
G1 Z-2.5000
 X121.3498
G0 Z25.0000
 X66.7529
G1 Z-2.5000
 X57.0000
 Y72.0625
 X65.4129
G0 Z25.0000
 X145.7392
G1 Z-2.5000
 X147.7854
G0 Z25.0000
 X154.9161
G1 Z-2.5000
 X156.9614
G0 Z25.0000
 X164.0000
G1 Z-2.5000
 X173.0000
 Y69.1250
 X102.4375
G0 Z25.0000
 X84.5905
G1 Z-2.5000
 X71.1897
G0 Z25.0000
 X64.0729
G1 Z-2.5000
 X57.0000
 Y66.1875
 X63.5360
G0 Z25.0000
 X69.8350
G1 Z-2.5000
 X83.4860
G0 Z25.0000
 X98.9995
G1 Z-2.5000
 X173.0000
 X172.7855 Y63.2500
 X57.2145
G0 Z25.0000
 X58.5320 Y60.3125
G1 Z-2.5000
 X171.4680
G0 Z25.0000
 X167.3416 Y57.3750
G1 Z-2.5000
 X62.6584
G0 Z25.0000
 X178.5000 Y51.5000
G1 Z-2.5000
 X178.4204
G0 Z25.0000
 X51.5796
G1 Z-2.5000
 X51.5000
 Z-5.0000
 X51.5796
G0 Z25.0000
 X178.4204
G1 Z-5.0000
 X178.5000
G0 Z25.0000
 X51.5000 Y98.5000
G1 Z-5.0000
 X51.5796
G0 Z25.0000
 X178.4204
G1 Z-5.0000
 X178.5000
 Z-7.5000
 X178.4204
G0 Z25.0000
 X51.5796
G1 Z-7.5000
 X51.5000
G0 Z25.0000
 X178.5000 Y51.5000
G1 Z-7.5000
 X178.4204
G0 Z25.0000
 X51.5796
G1 Z-7.5000
 X51.5000
 Z-10.0000
 X51.5796
G0 Z25.0000
 X178.4204
G1 Z-10.0000
 X178.5000
G0 Z25.0000
 X51.5000 Y98.5000
G1 Z-10.0000
 X51.5796
G0 Z25.0000
 X178.4204
G1 Z-10.0000
 X178.5000
G0 Z25.0000
M5 (stop spindle)
G04 P3 (wait for 3 seconds)
G0 Z25.0000
M2 (end program)
